!!!OTL: Die Gefangenen und das Maedchen.
!!!OTL-incipit: ES WAREN EINMAL DREI REITER
!!!ARE: Europa, Mitteleuropa, Deutschland
!!!SCT: F0576
!!!TXL: @@DE
!!!YEM: Copyright 1995, estate of Helmut Schaffrath.
**kern	**text
*ICvox	*
*M4/4	*
*met(c)	*
*k[]	*
*C:	*
!LO:TX:a:t=Mäßig. Nicht zu langsam.	!
{8g	1._Es
8g	.
=1	=1
4cc	wa-
[8cc	-ren
8cc]	ein-
4cc	-mal
8ee/	drei
8ee/	.
=2	=2
4cc	Rei-
[8g	-ter
8g]	gefang'n,
4e}	.
{8g	ge-
8g	.
=3	=3
4.ee	-fan-
8cc	-gen
8ee/L	wa-
8ddJ	.
(8dd/L	-ren
8bJ)	.
=4	=4
2cc/	ſie;
4r}	.
{8cc/L	ſie
8ddJ	.
=5	=5
4ee	wurden
8ee/	.
8ee	ge-
8ff/	-fan-
8ee/	.
(8dd	-gen
8cc)	ge-
=6	=6
(4.dd/	-füh-
8ee/)	.
4dd/}	-ret,
{(8g	kei-
8b)	-ne
=7	=7
[8dd	Trommel
8dd]	.
(8dd	ward
8ff)	da-
(8ee/L	-bei
8ddJ)	.
(8cc/L	ge-
8bJ)	.
=8	=8
(4cc/	-rüh-
4g)	.
4e}	-ret
{8.g/L	im
16eeJ	.
=9	=9
4.ee/	ganʒen
8cc/	.
8ee/L	röm'-
8ddJ	.
8dd/L	-ſchen
8bJ	.
=10	=10
2cc/	Reich!
4r}	.
==	==
!!!AGN: Soldaten - Lied, Gefangenschaft, Tod; Ballade
!!!ONB: ESAC (Essen Associative Code) Database: FINK
!!!AMT: simple quadruple
!!!AIN: vox
!!!EED: Helmut Schaffrath
!!!EEV: 1.0
!!!GTL: Soldaten- und Jaegerlieder
!!!source: Musikalischer Hausschatz der Deutschen. Eine Sammlung von über 1000 Liedern und Gesängen mit Singstimmen und Klavierbegleitung. Leipzig, Litterarisches Verlags-Haus.
!!!page: 375
!!!ENC: Anna Maria Matuszewska
!!!EEV: 2025/03/18
*-	*-
